X:150
T:Eavesdropper, The
R:jig
H:Also played in A, #155
D:Paddy Keenan: Port an Phiobaire
D:Dolores Keane & John Faulkner: Broken Hearted I'll Wander
Z:id:hn-jig-150
M:6/8
K:G
G2B BAG|Bdd dBG|cee dBG|BAA ABA|GBB BAG|Bdd dBG|cee dBA|1 BGF G2D:|2 BGF GBd||
~g3 afd|efg dBG|cee dBG|BAA ABd|g2b afd|efg dBG|cee dBA|1 BGF GBd:|2 BGF G2E||

